src/Assets/icons/personalized.svg

<svg width="82" height="81" viewBox="0 0 82 81" fill="none" xmlns="http://www.w3.org/2000/svg">
<circle cx="41" cy="40.5" r="40.5" fill="#D23C8F"/>
<circle cx="41" cy="40.5" r="40.5" fill="url(#paint0_linear_605_218)" fill-opacity="0.2"/>
<g filter="url(#filter0_d_605_218)">
<path d="M24 58H58V24H24V58ZM27.4 34.2H54.6V54.6H46.1C46.1 53.108 45.7072 51.6422 44.9612 50.3501C44.2151 49.058 43.1421 47.985 41.85 47.239C42.3999 46.3939 42.695 45.4083 42.7 44.4C42.7 43.0474 42.1627 41.7502 41.2062 40.7938C40.2498 39.8373 38.9526 39.3 37.6 39.3C36.2474 39.3 34.9502 39.8373 33.9938 40.7938C33.0373 41.7502 32.5 43.0474 32.5 44.4C32.505 45.4083 32.8001 46.3939 33.35 47.239C32.0579 47.985 30.9849 49.058 30.2388 50.3501C29.4928 51.6422 29.1 53.108 29.1 54.6H27.4V34.2Z" fill="white"/>
<path d="M52.9 35.9001H44.4V39.3001H52.9V35.9001Z" fill="white"/>
<path d="M52.9 41H47.8V44.4H52.9V41Z" fill="white"/>
</g>
<defs>
<filter id="filter0_d_605_218" x="22" y="23" width="38" height="38" filterUnits="userSpaceOnUse" color-interpolation-filters="sRGB">
<feFlood flood-opacity="0" result="BackgroundImageFix"/>
<feColorMatrix in="SourceAlpha" type="matrix" values="0 0 0 0 0 0 0 0 0 0 0 0 0 0 0 0 0 0 127 0" result="hardAlpha"/>
<feOffset dy="1"/>
<feGaussianBlur stdDeviation="1"/>
<feComposite in2="hardAlpha" operator="out"/>
<feColorMatrix type="matrix" values="0 0 0 0 0 0 0 0 0 0 0 0 0 0 0 0 0 0 0.25 0"/>
<feBlend mode="normal" in2="BackgroundImageFix" result="effect1_dropShadow_605_218"/>
<feBlend mode="normal" in="SourceGraphic" in2="effect1_dropShadow_605_218" result="shape"/>
</filter>
<linearGradient id="paint0_linear_605_218" x1="41" y1="21.5" x2="41" y2="101.5" gradientUnits="userSpaceOnUse">
<stop stop-opacity="0"/>
<stop offset="1"/>
</linearGradient>
</defs>
</svg>

<svg xmlns="http://www.w3.org/2000/svg" width="82" height="81" fill="none" xmlns:v="https://vecta.io/nano"><circle cx="41" cy="40.5" r="40.5" fill="#d23c8f"/><circle cx="41" cy="40.5" r="40.5" fill="url(#B)" fill-opacity=".2"/><g filter="url(#A)"><path d="M24 58h34V24H24v34zm3.4-23.8h27.2v20.4h-8.5a8.5 8.5 0 0 0-4.25-7.361c.55-.845.845-1.831.85-2.839a5.1 5.1 0 0 0-5.1-5.1 5.1 5.1 0 0 0-5.1 5.1c.005 1.008.3 1.994.85 2.839A8.5 8.5 0 0 0 29.1 54.6h-1.7V34.2z" fill="#fff"/><path d="M52.9 35.9h-8.5v3.4h8.5v-3.4z" fill="#fff"/><path d="M52.9 41h-5.1v3.4h5.1V41z" fill="#fff"/></g><defs><filter id="A" x="22" y="23" width="38" height="38" filterUnits="userSpaceOnUse" color-interpolation-filters="sRGB"><feFlood flood-opacity="0" result="A"/><feColorMatrix in="SourceAlpha" values="0 0 0 0 0 0 0 0 0 0 0 0 0 0 0 0 0 0 127 0" result="B"/><feOffset dy="1"/><feGaussianBlur stdDeviation="1"/><feComposite in2="B" operator="out"/><feColorMatrix values="0 0 0 0 0 0 0 0 0 0 0 0 0 0 0 0 0 0 0.25 0"/><feBlend in2="A"/><feBlend in="SourceGraphic"/></filter><linearGradient id="B" x1="41" y1="21.5" x2="41" y2="101.5" gradientUnits="userSpaceOnUse"><stop stop-opacity="0"/><stop offset="1"/></linearGradient></defs></svg>
